!!!COM: Fux, Johann Joseph
!!!OMD: Gradus ad Parnassum Exercise
!!!YEC: CC0 1.0 Universal (Public Domain). Mark Gotham and FourScoreAndMore.org waive all rights to this document.
**kern	**kern	**kern	**kern
*part4	*part3	*part2	*part1
*staff4	*staff3	*staff2	*staff1
*I"4	*I"3	*I"2	*I"1
*I'Pno	*I'Pno	*I'Pno	*I'Pno
!!LO:LB:g=z
*clefF4	*clefGv2	*clefG2	*clefG2
*k[]	*k[]	*k[]	*k[]
!!LO:TX:omd:t=
*M4/4	*M4/4	*M4/4	*M4/4
=123	=123	=123	=123
!	!	!	!LO:TX:a:t=Fig. 173; Species&colon; 2; Modal final&colon; d; Cantus firmus&colon; 1
1D	2r	1A	1d
.	2F/	.	.
=124	=124	=124	=124
1D	2A/	1d	1f
.	2B\	.	.
=125	=125	=125	=125
1C	2c\	1G	1e
.	2G/	.	.
=126	=126	=126	=126
1G	2B\	1G	1d
.	2A/	.	.
=127	=127	=127	=127
1E	2G/	1B	1g
.	2E/	.	.
=128	=128	=128	=128
1D	2A/	1d	1f
.	2F/	.	.
=129	=129	=129	=129
1AA	2E/	1c	1a
.	2F/	.	.
=130	=130	=130	=130
1C	2E/	1e	1g
.	2c\	.	.
=131	=131	=131	=131
1D	2A/	1d	1f
.	2F/	.	.
=132	=132	=132	=132
1AA	1A	1c#X	1e
=133	=133	=133	=133
1D	1A	1d	1d
==	==	==	==
*-	*-	*-	*-
!!!software: music21 v.9.7.1
!!!software: music21 v.9.7.1
!!!software: MuseScore 3.4.2
!!!RDF**kern: > = above
!!!RDF**kern: < = below
